X: 25943
T: Maurice O'Keefe's
R: polka
M: 2/4
K: Adorian
d|:A>B cd|e/a/a/g/ ed|eA B/A/G|A/B/A/G/ EG|
A>B cd|e/a/a/g/ ed|eA B/A/G/B/|1 A2 AE:|2 A2 A2||
|:e/a/a/g/ ed|e/a/a/g/ ed|eA B/A/G|A/B/A/G/ EG|
A>B cd|e/a/a/g/ ed|eA B/A/G|1 A2 A2:|2 A2 E2||

